svg/justvector/ebay.svg

<svg xmlns="http://www.w3.org/2000/svg" viewBox="0 0 100 100" enable-background="new 0 0 100 100"><path d="m85.79 30.5l-7.01 15.07-6.488-15.07h-9.942l1.675 3.373c-.941-.105-1.989-.211-3.141-.211-2.616 0-4.919.422-6.486 1.688-1.676 1.054-2.617 3.056-2.617 6.114h6.906c0-2 .105-3.9 2.617-3.9s2.825 1.581 2.825 3.689v2c-3.977-.106-7.849 0-10.256 1.896-1.047-1.053-2.408-1.686-4.5-1.686-2.512 0-4.187.739-5.651 2.846h-.105v-13.175h-6.906v11.91c-1.046-.527-2.303-.842-3.767-1.16-2.408-.527-5.548-.842-9.524-.842-16.64 0-18.419 5.164-18.419 11.173 0 6.957 2.094 11.806 18.418 11.806 3.768 0 7.01-.423 9.628-.951 1.36-.315 2.617-.737 3.663-1.265v5.167h6.594v-2.741h.104c1.257 2.424 3.14 3.267 5.86 3.267 5.757 0 6.697-5.165 6.908-9.803.522.106 1.046.106 1.674.106 3.034 0 5.02-1.266 6.488-3.794h.105l.313 3.373h6.49c-.105-1.581-.314-3.162-.314-4.743v-6.641l2.824 5.798v12.332h9.105v-12.332l12.14-23.296h-9.209m-62.37 16.338c6.07 0 5.861 3.058 5.861 5.166h-11.512c0-1.792-.104-5.166 5.651-5.166m9.628 11.174h-.104-4.082c0 1.896-.942 4-5.442 4-5.545 0-5.651-3.9-5.651-6.535h18.942v2.53h-3.663zm16.326-1.792c0 6.324-.418 8.959-2.93 8.959-2.408 0-2.827-2.635-2.827-8.959 0-4.954 0-8.433 2.827-8.433 3.035 0 2.93 3.479 2.93 8.433m11.302-.739c-2.302 0-2.616-2.213-2.616-4.01 0-4.428 2.616-4.111 6.07-4.322 0 2.742.627 8.327-3.454 8.327" fill-rule="evenodd"/></svg>

<?xml version="1.0" encoding="iso-8859-1"?>
<!-- Generator: Adobe Illustrator 15.0.0, SVG Export Plug-In . SVG Version: 6.00 Build 0)  -->
<!DOCTYPE svg PUBLIC "-//W3C//DTD SVG 1.1//EN" "http://www.w3.org/Graphics/SVG/1.1/DTD/svg11.dtd">
<svg version="1.1" id="Icons" xmlns="http://www.w3.org/2000/svg" xmlns:xlink="http://www.w3.org/1999/xlink" x="0px" y="0px"
	 width="100px" height="100px" viewBox="0 0 100 100" style="enable-background:new 0 0 100 100;" xml:space="preserve">
<path id="eBay" style="fill-rule:evenodd;clip-rule:evenodd;" d="M85.791,30.5l-7.012,15.074L72.291,30.5h-9.942l1.675,3.373
	c-0.941-0.105-1.989-0.211-3.141-0.211c-2.616,0-4.919,0.422-6.486,1.688c-1.676,1.054-2.617,3.056-2.617,6.114h6.906
	c0-2.003,0.105-3.9,2.617-3.9s2.825,1.581,2.825,3.689v2.002c-3.977-0.106-7.849,0-10.256,1.896c-1.047-1.053-2.408-1.686-4.5-1.686
	c-2.512,0-4.187,0.739-5.651,2.846h-0.105V33.136h-6.906v11.91c-1.046-0.527-2.303-0.842-3.767-1.16
	c-2.408-0.527-5.548-0.842-9.524-0.842C6.779,43.044,5,48.208,5,54.217c0,6.957,2.094,11.806,18.418,11.806
	c3.768,0,7.013-0.423,9.628-0.951c1.36-0.315,2.617-0.737,3.663-1.265v5.167h6.594v-2.741h0.104c1.257,2.424,3.14,3.267,5.86,3.267
	c5.757,0,6.697-5.165,6.908-9.803c0.522,0.106,1.046,0.106,1.674,0.106c3.034,0,5.023-1.266,6.488-3.794h0.105l0.313,3.373h6.49
	c-0.105-1.581-0.314-3.162-0.314-4.743v-6.641l2.824,5.798v12.332h9.105V53.796L95,30.5H85.791z M23.418,46.838
	c6.07,0,5.861,3.058,5.861,5.166H17.767C17.767,50.212,17.663,46.838,23.418,46.838z M33.046,58.012h-0.104H28.86
	c0,1.896-0.942,4.004-5.442,4.004c-5.545,0-5.651-3.9-5.651-6.535h18.942v2.53H33.046z M49.372,56.22
	c0,6.324-0.418,8.959-2.93,8.959c-2.408,0-2.827-2.635-2.827-8.959c0-4.954,0-8.433,2.827-8.433
	C49.477,47.787,49.372,51.266,49.372,56.22z M60.674,55.481c-2.302,0-2.616-2.213-2.616-4.005c0-4.428,2.616-4.111,6.07-4.322
	C64.128,49.896,64.755,55.481,60.674,55.481z"/>
</svg>
